svg/AI.svg

<svg width="36" height="36" viewBox="0 0 36 36" fill="none" xmlns="http://www.w3.org/2000/svg"><rect x="-48.3" y="-9.8" width="132.6" height="87.6" rx="11.8" stroke="#DDDDDD" stroke-width="0.4"/><g opacity="0.8"><path d="M36.0003 19.5212L32.6567 35.9998H28.7754L32.119 19.5212H36.0003Z" fill="#0D131A"/><path d="M27.1879 36.0001H23.2364L23.0026 33.4079H18.0691L16.7831 36.0001H12.6445L21.7166 19.5215H24.7328L27.1879 36.0001ZM22.6986 30.2835L22.1842 25.4232L19.659 30.2835H22.6986Z" fill="#0D131A"/><path d="M11.3463 13.5779C11.4291 13.1449 12.0555 13.1449 12.1383 13.5779L12.5138 15.5427C12.822 17.1547 14.0958 18.4156 15.7243 18.7206L17.7093 19.0923C18.1467 19.1743 18.1467 19.7943 17.7093 19.8762L15.7243 20.248C14.0958 20.553 12.822 21.8138 12.5138 23.4258L12.1383 25.3906C12.0555 25.8236 11.4291 25.8236 11.3463 25.3906L10.9708 23.4258C10.6627 21.8138 9.38885 20.553 7.7603 20.248L5.77534 19.8762C5.33791 19.7943 5.33791 19.1743 5.77534 19.0923L7.7603 18.7206C9.38885 18.4156 10.6627 17.1547 10.9708 15.5427L11.3463 13.5779Z" fill="#8D8F91"/><path d="M22.9031 8.39236C22.9622 8.08308 23.4096 8.08308 23.4687 8.39236L23.737 9.79579C23.9571 10.9472 24.867 11.8478 26.0302 12.0657L27.448 12.3312C27.7605 12.3897 27.7605 12.8326 27.448 12.8911L26.0302 13.1567C24.867 13.3745 23.9571 14.2752 23.737 15.4266L23.4687 16.83C23.4096 17.1393 22.9622 17.1393 22.9031 16.83L22.6348 15.4266C22.4147 14.2752 21.5049 13.3745 20.3416 13.1567L18.9238 12.8911C18.6113 12.8326 18.6113 12.3897 18.9238 12.3312L20.3416 12.0657C21.5049 11.8478 22.4147 10.9472 22.6348 9.79579L22.9031 8.39236Z" fill="#8D8F91"/><rect x="0.2" y="0.2" width="35.6" height="35.6" rx="11.8" stroke="#D1D5DA" stroke-width="0.4"/></g><defs><clipPath id="clip0_1970_14250"><rect width="36" height="36" rx="12" fill="white"/></clipPath></defs></svg>

<svg fill="none" viewBox="0 0 36 36"><rect width="132.6" height="87.6" x="-48.3" y="-9.8" stroke="#DDDDDD" stroke-width=".4" rx="11.8"/><g opacity=".8"><path fill="#0D131A" d="M36 19.521 32.657 36h-3.882L32.12 19.52z"/><path fill="#0D131A" d="M27.188 36h-3.952l-.233-2.592h-4.934L16.783 36h-4.139l9.073-16.478h3.016zm-4.49-5.716-.514-4.86-2.525 4.86z"/><path fill="#8D8F91" d="M11.346 13.578c.083-.433.71-.433.792 0l.376 1.965a4.01 4.01 0 0 0 3.21 3.178l1.985.371c.438.082.438.702 0 .784l-1.985.372a4.01 4.01 0 0 0-3.21 3.178l-.376 1.965c-.082.433-.709.433-.792 0l-.375-1.965a4.01 4.01 0 0 0-3.21-3.178l-1.986-.372c-.437-.082-.437-.702 0-.784l1.985-.371a4.01 4.01 0 0 0 3.21-3.178z"/><path fill="#8D8F91" d="M22.903 8.392c.06-.309.507-.309.566 0l.268 1.404a2.86 2.86 0 0 0 2.293 2.27l1.418.265c.313.059.313.502 0 .56l-1.418.266a2.86 2.86 0 0 0-2.293 2.27l-.268 1.403c-.06.31-.507.31-.566 0l-.268-1.403a2.86 2.86 0 0 0-2.293-2.27l-1.418-.266c-.313-.058-.313-.501 0-.56l1.418-.265a2.86 2.86 0 0 0 2.293-2.27z"/><rect width="35.6" height="35.6" x=".2" y=".2" stroke="#D1D5DA" stroke-width=".4" rx="11.8"/></g></svg>
